X: 6398
T: Castle Kelly
R: reel
M: 4/4
K: Aminor
|:A2cA ABcA|G~E3 G~E3|AccA GAcd|(3edc (3dcB cBAG|
A2cA ABcA|G~E3 G~E3|AccA GAcd|1 ecdB cBAG:|2 ecdB cBAg||
agec d2ed|cAGE G3g|agec d2cd|eaag ageg|
agec dfed|cAGE G2EG|AccA GAcd|ecdB cBAg|
agec dfed|e~c3 B~G3|AcBd cedf|eaag ageg|
agec dfed|cAGE G2EG|AccA GAcd|edcB A4||

